dist/assets/img/icon-top.svg

<svg xmlns="http://www.w3.org/2000/svg" preserveAspectRatio="xMidYMid" width="68.97" height="76.719" viewBox="0 0 68.97 76.719"><circle cx="34.485" cy="42.25" r="34.485" fill="#188b5a" opacity=".5"/><path d="M53.141 2.976V1.153c0-.631-.512-1.143-1.143-1.143H17.734c-.631 0-1.143.512-1.143 1.143v1.823c0 .632-.512 1.144-1.143 1.144h-4.061a4.173 4.173 0 00-4.174 4.173v12.098c0 .048.003.094.009.142.123.931 1.64 10.647 11.997 14.181.237.081.442.235.584.442a18.297 18.297 0 0010.081 7.237c.482.137.825.563.825 1.064v8.258c0 .5-.338.938-.823 1.064L20.604 55.2a1.101 1.101 0 00-.822 1.065v4.877c0 .631.512 1.143 1.143 1.143h27.882c.631 0 1.143-.512 1.143-1.143v-4.878a1.1 1.1 0 00-.822-1.064l-9.282-2.422a1.098 1.098 0 01-.822-1.064v-8.257c0-.501.342-.927.824-1.064a18.297 18.297 0 0010.081-7.237c.142-.207.347-.361.584-.442 10.357-3.535 11.874-13.25 11.997-14.181.006-.048.009-.094.009-.142V8.293a4.173 4.173 0 00-4.173-4.173h-4.062a1.144 1.144 0 01-1.143-1.144zM11.274 20.091V9.884c0-.941.763-1.703 1.704-1.703h2.47c.631 0 1.143.512 1.143 1.143v15.488c0 .464.018.925.052 1.381.082 1.073-1.244 1.665-1.968.868-2.527-2.78-3.23-5.892-3.385-6.783a1.065 1.065 0 01-.016-.187zm29.049 7.279l-5.263-2.749a.37.37 0 00-.344.001l-5.248 2.776a.37.37 0 01-.538-.389l.988-5.854a.369.369 0 00-.108-.327l-4.262-4.133a.37.37 0 01.203-.632l5.874-.87a.37.37 0 00.279-.203l2.613-5.331a.37.37 0 01.664-.002l2.641 5.317a.372.372 0 00.28.202l5.878.839a.37.37 0 01.207.631l-4.241 4.155a.37.37 0 00-.105.328l1.018 5.849a.37.37 0 01-.536.392zm18.119-7.092c-.154.891-.858 4.003-3.385 6.783-.724.797-2.05.205-1.968-.869.034-.455.052-.916.052-1.38V9.324c0-.631.512-1.143 1.143-1.143h2.471c.94 0 1.703.762 1.703 1.703v10.207c0 .064-.005.124-.016.187z" fill="#fff" fill-rule="evenodd"/></svg>

<svg xmlns="http://www.w3.org/2000/svg" xmlns:xlink="http://www.w3.org/1999/xlink" preserveAspectRatio="xMidYMid" width="68.97" height="76.719" viewBox="0 0 68.97 76.719">
  <defs>
    <style>
      .cls-1 {
        fill: #188b5a;
        opacity: 0.5;
      }

      .cls-2 {
        fill: #fff;
        fill-rule: evenodd;
      }
    </style>
  </defs>
  <g>
    <circle cx="34.485" cy="42.25" r="34.485" class="cls-1"/>
    <path d="M53.141,2.976 L53.141,1.153 C53.141,0.522 52.629,0.010 51.998,0.010 L50.524,0.010 L19.209,0.010 L17.734,0.010 C17.103,0.010 16.591,0.522 16.591,1.153 L16.591,2.976 C16.591,3.608 16.079,4.120 15.448,4.120 L11.387,4.120 C9.082,4.120 7.213,5.988 7.213,8.293 L7.213,20.391 C7.213,20.439 7.216,20.485 7.222,20.533 C7.345,21.464 8.862,31.180 19.219,34.714 C19.456,34.795 19.661,34.949 19.803,35.156 C22.187,38.621 25.735,41.220 29.884,42.393 C30.366,42.530 30.709,42.956 30.709,43.457 L30.709,51.715 C30.709,52.215 30.371,52.653 29.886,52.779 L20.604,55.200 C20.120,55.327 19.782,55.764 19.782,56.265 L19.782,61.142 C19.782,61.773 20.294,62.285 20.925,62.285 L48.807,62.285 C49.438,62.285 49.950,61.773 49.950,61.142 L49.950,56.264 C49.950,55.764 49.612,55.327 49.128,55.200 L39.846,52.778 C39.361,52.652 39.024,52.215 39.024,51.714 L39.024,43.457 C39.024,42.956 39.366,42.530 39.848,42.393 C43.997,41.220 47.545,38.621 49.929,35.156 C50.071,34.949 50.276,34.795 50.513,34.714 C60.870,31.179 62.387,21.464 62.510,20.533 C62.516,20.485 62.519,20.439 62.519,20.391 L62.519,8.293 C62.519,5.988 60.650,4.120 58.346,4.120 L54.284,4.120 C53.653,4.120 53.141,3.608 53.141,2.976 ZM11.274,20.091 L11.274,9.884 C11.274,8.943 12.037,8.181 12.978,8.181 L15.448,8.181 C16.079,8.181 16.591,8.693 16.591,9.324 L16.591,9.437 L16.591,15.094 L16.591,24.812 C16.591,25.276 16.609,25.737 16.643,26.193 C16.725,27.266 15.399,27.858 14.675,27.061 C12.148,24.281 11.445,21.169 11.290,20.278 C11.279,20.215 11.274,20.155 11.274,20.091 ZM40.323,27.370 L35.060,24.621 C34.952,24.565 34.823,24.565 34.716,24.622 L29.468,27.398 C29.197,27.542 28.879,27.312 28.930,27.009 L29.918,21.155 C29.938,21.035 29.898,20.912 29.810,20.828 L25.548,16.695 C25.327,16.481 25.448,16.108 25.751,16.063 L31.625,15.193 C31.746,15.176 31.850,15.099 31.904,14.990 L34.517,9.659 C34.652,9.384 35.044,9.383 35.181,9.657 L37.822,14.974 C37.877,15.083 37.981,15.159 38.102,15.176 L43.980,16.015 C44.284,16.058 44.406,16.431 44.187,16.646 L39.946,20.801 C39.859,20.886 39.820,21.009 39.841,21.129 L40.859,26.978 C40.912,27.281 40.595,27.512 40.323,27.370 ZM58.442,20.278 C58.288,21.169 57.584,24.281 55.057,27.061 C54.333,27.858 53.007,27.266 53.089,26.192 C53.123,25.737 53.141,25.276 53.141,24.812 L53.141,15.094 L53.141,9.437 L53.141,9.324 C53.141,8.693 53.653,8.181 54.284,8.181 L56.755,8.181 C57.695,8.181 58.458,8.943 58.458,9.884 L58.458,20.091 C58.458,20.155 58.453,20.215 58.442,20.278 Z" class="cls-2"/>
  </g>
</svg>
